assets/icons/small ensemble form.svg

<svg xmlns="http://www.w3.org/2000/svg" width="512" height="512" viewBox="0 0 512 512"><path d="M368.5 1.665c-9.845 5.202-10.451 7.443-10.478 38.699L358 66.228l7 12.703 7 12.704v111.883l-6.306 2.261c-8.393 3.011-20.017 9.908-26.462 15.702L334 226.185V203h4.05c9.698 0 14.456-7.585 8.495-13.545L344.091 187H148.349l-2.175 2.314c-5.154 5.487-1.617 12.649 6.64 13.442l5.186.498v55.071l-10.293 10.587c-40.527 41.689-51.754 101.524-29.118 155.186 4.091 9.7 16.599 30.664 19.285 32.324 2.154 1.331 1.055 3.789-10.874 24.325-13.158 22.651-13.307 23.1-9.077 27.33 6.435 6.435 8.802 4.519 21.688-17.56 12.27-21.024 10.958-19.999 17.742-13.859 34.068 30.833 89.05 42.186 134.609 27.794 14.624-4.62 15.381-20.843.777-16.639-37.875 10.902-66.434 9.499-96.332-4.735-121.321-57.759-81.75-241.221 52.093-241.515 25.863-.056 66.644 11.567 64.001 18.241-4.27 10.782-6.316 29.66-4.519 41.696 2.306 15.445 2.334 16.385.633 20.762-.907 2.331-2.485 5.322-3.506 6.648l-1.858 2.409-7.382-7.409c-42.169-42.33-112.06-12.325-109.628 47.064 1.896 46.284 51.097 75.504 91.921 54.591l6.651-3.407 2.692 8.671c25.809 83.146 130.942 108.871 191.727 46.914 38.774-39.52 43.875-97.369 12.845-145.646-7.165-11.147-7.776-13.684-6.018-24.995 6.923-44.54-16.766-86.707-56.809-101.12l-6.25-2.25V91.003l6.75-11.751L436.5 67.5l.297-26.337c.347-30.722-.142-32.889-8.637-38.276L423.608 0l-26.054.04C375.756.074 371.01.339 368.5 1.665m7.25 14.024c-1.603.419-1.75 2.396-1.75 23.511v23.052l5.068 9.374L384.137 81h26.512l5.175-9.37L421 62.261V39.666c0-21.316-.11-22.654-1.934-23.631-1.89-1.011-39.617-1.312-43.316-.346M16.222 73.418c-19.464 6.314-22.058 33.859-4.065 43.163 1.485.768 14.094 4.565 28.021 8.439s27.684 7.717 30.572 8.54l5.25 1.496v20.925c0 22.727.457 25.137 5.13 27.073 8.671 3.591 10.87-1.386 10.87-24.601 0-12.645.343-18.453 1.089-18.453.6 0 13.477 3.429 28.617 7.62 29.804 8.25 32.191 8.514 40.171 4.443 16.303-8.317 16.389-33.174.144-41.548-3.525-1.817-132.438-37.499-137.437-38.042-2.246-.244-6.009.182-8.362.945m2.167 16.924c-3.303 2.841-3.678 7.816-.806 10.68 1.925 1.918 129.28 37.964 134.167 37.974 5.312.01 8.796-7.436 5.536-11.833-1.792-2.417-8.018-4.346-67.38-20.88-72.641-20.232-67.786-19.15-71.517-15.941M388 111v14h19V97h-19zm0 40.5V163h19v-23h-19zm0 38.5v11h19v-22h-19zM78.455 205.455 76 207.909v297.182l2.455 2.454c3.251 3.252 7.843 3.248 11.1-.009l2.464-2.465-.259-149.124-.26-149.124-2.361-1.911c-3.286-2.662-7.705-2.437-10.684.543M174 224.864v21.864l11.288-5.746c6.209-3.161 13.859-6.557 17-7.547l5.712-1.8V203h-34zm50-9.513v12.35l5.25-.952c2.887-.523 12.563-.956 21.5-.961l16.25-.008V203h-43zm58 .515v12.866l10.079 3.196c5.544 1.757 13.475 4.742 17.625 6.633s7.715 3.439 7.921 3.439.375-8.775.375-19.5V203h-36zM388 228v11h19v-22h-19zm-23.231-4.526c-30.371 15.018-46.109 46.787-40.3 81.351 2.51 14.937.66 23.26-7.788 35.033-44.216 61.616-3.339 150.542 71.7 155.981 86.199 6.248 137.525-84.346 89.067-157.207-8.129-12.222-9.345-18.191-7.009-34.39 4.226-29.306-4.889-54.424-25.963-71.549-5.555-4.514-18.111-11.693-20.451-11.693-.686 0-1.025 16.033-1.025 48.46v48.46l5.024 4.699c19.622 18.354 17.263 51.608-4.781 67.394-7.602 5.443-12.944 5.4-15.801-.126-2.116-4.091-.886-7.482 3.924-10.819 19.757-13.708 19.116-39.269-1.249-49.811-30.56-15.82-57.44 28.269-29.179 47.86 9.428 6.536 9.026 16.883-.656 16.883-25.487 0-35.339-48.493-14.302-70.4l6.039-6.29-.259-48.582-.26-48.583zM388 266v11h19v-22h-19zm0 35.75v8.75h19V293h-19zm-152 20.136c-49.725 16.076-43.918 86.761 7.729 94.075 15.84 2.243 40.444-7.344 38.883-15.151-1.614-8.07 2.956-33.638 8.351-46.72l2.809-6.811-2.978-4.784c-11.157-17.926-35.164-26.956-54.794-20.609m124.321 111.303c-5.286 2.555-5.1 11.224.294 13.681 1.689.77 13.442 1.13 36.876 1.13 38.946 0 39.842-.18 39.842-8 0-7.837-.868-8.009-40.139-7.932-22.115.043-35.484.449-36.873 1.121" fill="#040404" fill-rule="evenodd"/></svg>

<svg xmlns="http://www.w3.org/2000/svg" width="512" height="512" viewBox="0 0 512 512" version="1.1"><path d="" stroke="none" fill="#080404" fill-rule="evenodd"/><path d="M 368.500 1.665 C 358.655 6.867, 358.049 9.108, 358.022 40.364 L 358 66.228 365 78.931 L 372 91.635 372 147.576 L 372 203.518 365.694 205.779 C 357.301 208.790, 345.677 215.687, 339.232 221.481 L 334 226.185 334 214.593 L 334 203 338.050 203 C 347.748 203, 352.506 195.415, 346.545 189.455 L 344.091 187 246.220 187 L 148.349 187 146.174 189.314 C 141.020 194.801, 144.557 201.963, 152.814 202.756 L 158 203.254 158 230.790 L 158 258.325 147.707 268.912 C 107.180 310.601, 95.953 370.436, 118.589 424.098 C 122.680 433.798, 135.188 454.762, 137.874 456.422 C 140.028 457.753, 138.929 460.211, 127 480.747 C 113.842 503.398, 113.693 503.847, 117.923 508.077 C 124.358 514.512, 126.725 512.596, 139.611 490.517 C 151.881 469.493, 150.569 470.518, 157.353 476.658 C 191.421 507.491, 246.403 518.844, 291.962 504.452 C 306.586 499.832, 307.343 483.609, 292.739 487.813 C 254.864 498.715, 226.305 497.312, 196.407 483.078 C 75.086 425.319, 114.657 241.857, 248.500 241.563 C 274.363 241.507, 315.144 253.130, 312.501 259.804 C 308.231 270.586, 306.185 289.464, 307.982 301.500 C 310.288 316.945, 310.316 317.885, 308.615 322.262 C 307.708 324.593, 306.130 327.584, 305.109 328.910 L 303.251 331.319 295.869 323.910 C 253.700 281.580, 183.809 311.585, 186.241 370.974 C 188.137 417.258, 237.338 446.478, 278.162 425.565 L 284.813 422.158 287.505 430.829 C 313.314 513.975, 418.447 539.700, 479.232 477.743 C 518.006 438.223, 523.107 380.374, 492.077 332.097 C 484.912 320.950, 484.301 318.413, 486.059 307.102 C 492.982 262.562, 469.293 220.395, 429.250 205.982 L 423 203.732 423 147.368 L 423 91.003 429.750 79.252 L 436.500 67.500 436.797 41.163 C 437.144 10.441, 436.655 8.274, 428.160 2.887 L 423.608 0 397.554 0.040 C 375.756 0.074, 371.010 0.339, 368.500 1.665 M 375.750 15.689 C 374.147 16.108, 374 18.085, 374 39.200 L 374 62.252 379.068 71.626 L 384.137 81 397.393 81 L 410.649 81 415.824 71.630 L 421 62.261 421 39.666 C 421 18.350, 420.890 17.012, 419.066 16.035 C 417.176 15.024, 379.449 14.723, 375.750 15.689 M 16.222 73.418 C -3.242 79.732, -5.836 107.277, 12.157 116.581 C 13.642 117.349, 26.251 121.146, 40.178 125.020 C 54.105 128.894, 67.862 132.737, 70.750 133.560 L 76 135.056 76 155.981 C 76 178.708, 76.457 181.118, 81.130 183.054 C 89.801 186.645, 92 181.668, 92 158.453 C 92 145.808, 92.343 140, 93.089 140 C 93.689 140, 106.566 143.429, 121.706 147.620 C 151.510 155.870, 153.897 156.134, 161.877 152.063 C 178.180 143.746, 178.266 118.889, 162.021 110.515 C 158.496 108.698, 29.583 73.016, 24.584 72.473 C 22.338 72.229, 18.575 72.655, 16.222 73.418 M 18.389 90.342 C 15.086 93.183, 14.711 98.158, 17.583 101.022 C 19.508 102.940, 146.863 138.986, 151.750 138.996 C 157.062 139.006, 160.546 131.560, 157.286 127.163 C 155.494 124.746, 149.268 122.817, 89.906 106.283 C 17.265 86.051, 22.120 87.133, 18.389 90.342 M 388 111 L 388 125 397.500 125 L 407 125 407 111 L 407 97 397.500 97 L 388 97 388 111 M 388 151.500 L 388 163 397.500 163 L 407 163 407 151.500 L 407 140 397.500 140 L 388 140 388 151.500 M 388 190 L 388 201 397.500 201 L 407 201 407 190 L 407 179 397.500 179 L 388 179 388 190 M 78.455 205.455 L 76 207.909 76 356.500 L 76 505.091 78.455 507.545 C 81.706 510.797, 86.298 510.793, 89.555 507.536 L 92.019 505.071 91.760 355.947 L 91.500 206.823 89.139 204.912 C 85.853 202.250, 81.434 202.475, 78.455 205.455 M 174 224.864 L 174 246.728 185.288 240.982 C 191.497 237.821, 199.147 234.425, 202.288 233.435 L 208 231.635 208 217.317 L 208 203 191 203 L 174 203 174 224.864 M 224 215.351 L 224 227.701 229.250 226.749 C 232.137 226.226, 241.813 225.793, 250.750 225.788 L 267 225.780 267 214.390 L 267 203 245.500 203 L 224 203 224 215.351 M 282 215.866 L 282 228.732 292.079 231.928 C 297.623 233.685, 305.554 236.670, 309.704 238.561 C 313.854 240.453, 317.419 242, 317.625 242 C 317.831 242, 318 233.225, 318 222.500 L 318 203 300 203 L 282 203 282 215.866 M 388 228 L 388 239 397.500 239 L 407 239 407 228 L 407 217 397.500 217 L 388 217 388 228 M 364.769 223.474 C 334.398 238.492, 318.660 270.261, 324.469 304.825 C 326.979 319.762, 325.129 328.085, 316.681 339.858 C 272.465 401.474, 313.342 490.400, 388.381 495.839 C 474.580 502.087, 525.906 411.493, 477.448 338.632 C 469.319 326.410, 468.103 320.441, 470.439 304.242 C 474.665 274.936, 465.550 249.818, 444.476 232.693 C 438.921 228.179, 426.365 221, 424.025 221 C 423.339 221, 423 237.033, 423 269.460 L 423 317.920 428.024 322.619 C 447.646 340.973, 445.287 374.227, 423.243 390.013 C 415.641 395.456, 410.299 395.413, 407.442 389.887 C 405.326 385.796, 406.556 382.405, 411.366 379.068 C 431.123 365.360, 430.482 339.799, 410.117 329.257 C 379.557 313.437, 352.677 357.526, 380.938 377.117 C 390.366 383.653, 389.964 394, 380.282 394 C 354.795 394, 344.943 345.507, 365.980 323.600 L 372.019 317.310 371.760 268.728 L 371.500 220.145 364.769 223.474 M 388 266 L 388 277 397.500 277 L 407 277 407 266 L 407 255 397.500 255 L 388 255 388 266 M 388 301.750 L 388 310.500 397.500 310.500 L 407 310.500 407 301.750 L 407 293 397.500 293 L 388 293 388 301.750 M 236 321.886 C 186.275 337.962, 192.082 408.647, 243.729 415.961 C 259.569 418.204, 284.173 408.617, 282.612 400.810 C 280.998 392.740, 285.568 367.172, 290.963 354.090 L 293.772 347.279 290.794 342.495 C 279.637 324.569, 255.630 315.539, 236 321.886 M 360.321 433.189 C 355.035 435.744, 355.221 444.413, 360.615 446.870 C 362.304 447.640, 374.057 448, 397.491 448 C 436.437 448, 437.333 447.820, 437.333 440 C 437.333 432.163, 436.465 431.991, 397.194 432.068 C 375.079 432.111, 361.710 432.517, 360.321 433.189" stroke="none" fill="#040404" fill-rule="evenodd"/></svg>
